X: 78
T: Hamborg
B:[[Notböcker/Melodier til gamle danske Almuedanse for Violin solo]]
O:Danmark
Z:Søren Bak Vestergaard
M: 2/4
L: 1/8
K: G
d|g/f/e/d/ gB|dG BD|c/B/A/G/ FA|GB dg|g/f/e/d/ gB|\
dG BD|c/B/A/G/ F/A/D/F/|GGG:| |:z/d/|ggd z/ g/|bbd z/ f/|\
aa g/f/e/f/|gbd z/ d/|ggd z/ g/|bbd z/ f/|aa g/f/e/f/|gbg:|

